src/16/panel/network-wireless-secure-signal-ok.svg

<svg height="16" width="16.002" xmlns="http://www.w3.org/2000/svg"><g color="#000" fill="#bebebe"><path d="M8.033 2C5 2 2.267 3.078.002 4.75l8.031 8.75L9 12.436V11h1.014c.02-1.635 1.342-3 2.986-3l.021.002 2.981-3.283C13.745 3.065 11.044 2 8.033 2zm-.062 1c2.393 0 4.524.836 6.437 2.031l-6.437 7L1.596 5C3.496 3.821 5.6 3 7.97 3z" style="marker:none" overflow="visible"/><path d="M7.972 6.406c-1.12 0-2.148.258-3.094.719l3.094 3.406 3.093-3.375c-.948-.461-1.973-.75-3.093-.75zM13 9c-1.108 0-2 .91-2 2.031V12h-1v4h6v-4h-1v-.969C15 9.911 14.108 9 13 9zm0 1c.554 0 1 .442 1 1v1h-2v-1c0-.558.446-1 1-1z" style="marker:none" overflow="visible"/></g></svg>

<svg xmlns="http://www.w3.org/2000/svg" width="16" height="16" version="1.1">
 <defs>
  <style id="current-color-scheme" type="text/css">
   .ColorScheme-Text { color:#dfdfdf; } .ColorScheme-Highlight { color:#4285f4; }
  </style>
 </defs>
 <path style="opacity:0.3;fill:currentColor" class="ColorScheme-Text" d="M 8.029,2 8.031,2.002 C 4.9968,2.002 2.2653,3.2713 0,5.0156 L 8.031,14 9,12.904 V 11 H 10.014 C 10.033,9.365 11.356,8 13,8 13.105,8 13.204,8.02 13.307,8.031 L 16,4.9844 C 13.742,3.2628 11.04,2 8.029,2 Z"/>
 <path style="fill:currentColor" class="ColorScheme-Text" d="M 8,7 C 5,7 3.0996,8.5 3.0996,8.5 L 8,14 9,12.877 V 11 H 10.014 C 10.03,9.622 10.976,8.447 12.256,8.107 11.478,7.663 10.02,7 8,7 Z"/>
 <path style="fill:currentColor" class="ColorScheme-Text" d="M 13,9 C 11.892,9 11,9.911 11,11.031 V 12 H 10 V 16 H 16 V 12 H 15 V 11.031 C 15,9.911 14.108,9 13,9 Z M 13,10 C 13.554,10 14,10.442 14,11 V 12 H 12 V 11 C 12,10.442 12.446,10 13,10 Z"/>
</svg>
